X:15
T:Ferrybridge Hornpipe. Roose.0920
B:J.Roose MS, Manchester 1850
Z:Village Music Project Edmund Spriggs 2019
Q:1/2=76
M:C|
L:1/8
K:D
AG|FEFG FAdA|GFED CEAG|FDFA defd|cdec cBAG|
FEFG FAdA|GFED CEAG|FDFA BGEC|D2DD D2:|
|:ed|cdef gedc|defg afdf|gece fdBd|e2a2 a2AG|
FEFG FAdA|GFED CEAG|FDFA BGEC|D2DD D2:|

